X:1
T:RVW2/1/178 Green Bushes
T:RVW2/1/178 Green Bushes
T:Transcribed by Simon Furey and Lewis Jones
C:Transcribed by Simon Furey and Lewis Jones
L:1/8
Q:1/4=100
M:3/4
K:C
V:1 treble 
V:1
"^(Editorialsuggestion)" AG | F2 E2 D2 | C2 E2 F2 | G2 F2 D2 | D4 DE | F2 G2 A2 | c2 A2 c2 | %7
 d2 c2 B2 | A4 DE | F2 G2 A2 | c2 A2 dc | B2 G2 d2 | c4 BA | G2 F2 D2 | C2 D2 EF | G2 F2 D2 | D4 |] %17

